X: 128
T:Robin's Waltz
M:3/4
L:1/4
C:Jon Swayne
R:Waltz
Z:Steve Mansfield
K:G
B3 | Ad>c | B3 | AGF | G3 | FED |1 E3 |
D3 :|2 E3-| E3 |: BA/G/A/B/ | c2A | FGA |
B2F | EFG | A2G |1 Fd>c | B3 :|2 FAG | E3-| E3 ||
<end>
<start>
